X:1
T:Minuet in G Major
T:BWV Anhang 114
T:Johann Sebastian Bach (1685 - 1750)
%%score { ( 1 4 ) | ( 2 3 ) }
L:1/8
M:3/4
K:G
V:1 treble nm="Piano"
V:4 treble 
V:2 bass 
V:3 bass 
V:1
 d2 GABc | d2 .G2 .G2 | e2 cdef | g2 .G2 .G2 | c2 dcBA | B2 cBAG | F2 GABG | A6 | d2 GABc | %9
 d2 .G2 .G2 | e2 cdef | g2 .G2 .G2 | c2 dcBA | B2 cBAG | A2 BAGF | G6 | d2 GF G2 | e2 GF G2 | %18
 d2 c2 B2 | AGFG A2 | DEFGAB | c2 B2 A2 | Bd G2 F2 | G6 |] %24
V:2
 [B,D]4 A,2 | B,6 | C6 | B,6 | A,6 | G,6 | D2 B,2 G,2 | D2 D,CB,A, | B,4 A,2 | G,2 .B,2 .G,2 | C6 | %11
 B,2 CB,A,G, | A,4 F,2 | G,4 B,2 | C2 D2 D,2 | G,4 G,,2 | z2 D4 | z2 E4 | B,2 A,2 G,2 | D4 z2 | %20
 z2 z2 F,2 | E,2 G,2 F,2 | G,2 B,,2 D,2 | G,2 D,2 !fermata!G,,2 |] %24
V:3
 G,4 x2 | x6 | x6 | x6 | x6 | x6 | x6 | x6 | x6 | x6 | x6 | x6 | x6 | x6 | x6 | x6 | B,4 B,2 | %17
 C4 C2 | x6 | x6 | D,6 | x6 | x6 | x6 |] %24
V:4
 x6 | x6 | x2 x/4 x15/4 | x6 | x/4 x23/4 | x6 | x6 | x6 | x6 | x6 | x2 x/4 x15/4 | x6 | x/4 x23/4 | %13
 x6 | x6 | x6 | x6 | x6 | x6 | x6 | x6 | x6 | x6 | [B,D]6 |] %24

